symbols/web/calendar_today/materialsymbolsrounded/calendar_today_wght100_40px.svg

<svg xmlns="http://www.w3.org/2000/svg" height="40" width="40"><path d="M9.5 34.5q-1 0-1.667-.667-.666-.666-.666-1.666V11q0-1 .666-1.667.667-.666 1.667-.666h3.542V5.583q0-.25.166-.416.167-.167.417-.167.292 0 .458.188.167.187.167.437v3.042h11.667V5.458q0-.166.166-.312Q26.25 5 26.458 5q.209 0 .354.146.146.146.146.396v3.125H30.5q1 0 1.667.666.666.667.666 1.667v21.167q0 1-.666 1.666-.667.667-1.667.667Zm0-1h21q.583 0 .958-.375t.375-.958v-14.25H8.167v14.25q0 .583.375.958t.958.375ZM8.167 16.917h23.666V11q0-.583-.375-.958t-.958-.375h-21q-.583 0-.958.375T8.167 11Zm0 0v-7.25 7.25Z"/></svg>

<svg xmlns="http://www.w3.org/2000/svg" height="40" width="40"><path d="M9.5 34.5Q8.5 34.5 7.833 33.833Q7.167 33.167 7.167 32.167V11Q7.167 10 7.833 9.333Q8.5 8.667 9.5 8.667H13.042V5.583Q13.042 5.333 13.208 5.167Q13.375 5 13.625 5Q13.917 5 14.083 5.188Q14.25 5.375 14.25 5.625V8.667H25.917V5.458Q25.917 5.292 26.083 5.146Q26.25 5 26.458 5Q26.667 5 26.812 5.146Q26.958 5.292 26.958 5.542V8.667H30.5Q31.5 8.667 32.167 9.333Q32.833 10 32.833 11V32.167Q32.833 33.167 32.167 33.833Q31.5 34.5 30.5 34.5ZM9.5 33.5H30.5Q31.083 33.5 31.458 33.125Q31.833 32.75 31.833 32.167V17.917H8.167V32.167Q8.167 32.75 8.542 33.125Q8.917 33.5 9.5 33.5ZM8.167 16.917H31.833V11Q31.833 10.417 31.458 10.042Q31.083 9.667 30.5 9.667H9.5Q8.917 9.667 8.542 10.042Q8.167 10.417 8.167 11ZM8.167 16.917V11Q8.167 10.417 8.167 10.042Q8.167 9.667 8.167 9.667Q8.167 9.667 8.167 10.042Q8.167 10.417 8.167 11V16.917Z"/></svg>
